img/twitter.svg

<?xml version="1.0" encoding="UTF-8"?>
<svg width="20px" height="20px" viewBox="0 0 20 20" version="1.1" xmlns="http://www.w3.org/2000/svg" xmlns:xlink="http://www.w3.org/1999/xlink">
    <!-- Generator: Sketch 48.2 (47327) - http://www.bohemiancoding.com/sketch -->
    <title>Twitter</title>
    <desc>Created with Sketch.</desc>
    <defs></defs>
    <g id="ETHindia-Team" stroke="none" stroke-width="1" fill="none" fill-rule="evenodd" transform="translate(-1068.000000, -991.000000)">
        <g id="Group-2" transform="translate(1068.000000, 991.000000)" fill="#00A7D3" fill-rule="nonzero">
            <path d="M3,0 L16,0 C18.209139,-4.05812251e-16 20,1.790861 20,4 L20,16 C20,18.209139 18.209139,20 16,20 L4,20 C1.790861,20 2.705415e-16,18.209139 0,16 L0,3 C-2.02906125e-16,1.34314575 1.34314575,3.04359188e-16 3,0 Z M17.2222222,5.58055556 C16.6823016,5.82456047 16.1082722,5.98464798 15.52,6.05527778 C16.141892,5.67513393 16.6048545,5.08239201 16.8230556,4.38694444 C16.2428101,4.73776218 15.6061746,4.98540534 14.9413889,5.11888889 C14.4008333,4.53333333 13.6305556,4.16666667 12.7783333,4.16666667 C11.1419444,4.16666667 9.815,5.51666667 9.815,7.18222222 C9.815,7.41833333 9.84111111,7.64833333 9.89194444,7.86916667 C7.42888889,7.74333333 5.24527778,6.54305556 3.78361111,4.71861111 C3.51958714,5.18029427 3.38128128,5.70315556 3.3825,6.235 C3.37890422,7.23828124 3.87252709,8.17819328 4.70055556,8.74472222 C4.22920676,8.72926353 3.76863751,8.59972843 3.35833333,8.36722222 L3.35805556,8.40555556 C3.35805556,9.86611111 4.37972222,11.0847222 5.73527778,11.3622222 C5.29908801,11.4823073 4.84102248,11.4998009 4.39694444,11.4133333 C4.77416667,12.6113889 5.86861111,13.4836111 7.165,13.5077778 C6.12080728,14.3441961 4.82260608,14.7995317 3.48472222,14.7986111 C3.24583333,14.7986111 3.00972222,14.7844444 2.77777778,14.7563889 C4.08972222,15.6122222 5.64722222,16.1111111 7.32055556,16.1111111 C12.7716667,16.1111111 15.7519444,11.5166667 15.7519444,7.53166667 C15.7519444,7.40111111 15.7491667,7.27055556 15.7436111,7.14111111 C16.3255245,6.7131782 16.8262683,6.18468325 17.2222222,5.58055556 Z" id="Twitter"></path>
        </g>
    </g>
</svg>

<?xml version="1.0" encoding="utf-8"?>
<!-- Generator: Adobe Illustrator 22.1.0, SVG Export Plug-In . SVG Version: 6.00 Build 0)  -->
<svg version="1.1" id="Layer_1" xmlns="http://www.w3.org/2000/svg" xmlns:xlink="http://www.w3.org/1999/xlink" x="0px" y="0px"
	 viewBox="0 0 20 20" style="enable-background:new 0 0 20 20;" xml:space="preserve">
<style type="text/css">
	.st0{fill:#FFA600;}
</style>
<title>Twitter</title>
<desc>Created with Sketch.</desc>
<g id="ETHindia-Team" transform="translate(-1068.000000, -991.000000)">
	<g id="Group-2" transform="translate(1068.000000, 991.000000)">
		<path id="Twitter" class="st0" d="M3,0h13c2.2,0,4,1.8,4,4v12c0,2.2-1.8,4-4,4H4c-2.2,0-4-1.8-4-4V3C0,1.3,1.3,0,3,0z M17.2,5.6
			c-0.5,0.2-1.1,0.4-1.7,0.5c0.6-0.4,1.1-1,1.3-1.7c-0.6,0.4-1.2,0.6-1.9,0.7c-0.5-0.6-1.3-1-2.2-1c-1.6,0-3,1.4-3,3
			c0,0.2,0,0.5,0.1,0.7C7.4,7.7,5.2,6.5,3.8,4.7c-0.3,0.5-0.4,1-0.4,1.5c0,1,0.5,1.9,1.3,2.5c-0.5,0-0.9-0.1-1.3-0.4l0,0
			c0,1.5,1,2.7,2.4,3c-0.4,0.1-0.9,0.1-1.3,0.1c0.4,1.2,1.5,2.1,2.8,2.1c-1,0.8-2.3,1.3-3.7,1.3c-0.2,0-0.5,0-0.7,0
			c1.3,0.9,2.9,1.4,4.5,1.4c5.5,0,8.4-4.6,8.4-8.6c0-0.1,0-0.3,0-0.4C16.3,6.7,16.8,6.2,17.2,5.6z"/>
	</g>
</g>
</svg>
